X:1
T:Title
%%score [ ( 1 2 ) ( 3 4 ) ]
L:1/8
Q:1/4=180
M:3/4
K:Bb
V:1 treble-8 nm="Tenor I/II"
V:2 treble-8 
V:3 bass nm="Bass I/II"
V:4 bass 
V:1
"^Moderate waltz tempo" B2 | d4 d2 | B4 d2 | e4 e2 | e4 g2 | e4 e2 | e4 =e2 | f4 !>!d2 | e4 B2 | %9
w: In|all my|dreams I|dream of|you, Each|time I|love you|more, _|_ I|
w: |||||||* Hm|_ _|
 d4 d2 | f4 f2 | f4 c2 | d4 f2 | =e4 e2 | =e4 e2 | _e6- | e4 B2 | d4 d2 | B4 d2 | e4 e2 | e4 g2 | %21
w: dream the|day and|night a-|way Of|one whom|I a-|dore.|_ Some-|times you|kiss me|ten- der-|ly, And|
w: ||||||||||||
 e4 e2 | e4 g2 | ^f6- | f4 ^f2 | =f4 f2 | _e4 d2 | e4 f2 | !fermata!g4 =e2 |"^rall." =e4 e2 | %30
w: say you|love me|too,|_ I|won- der|will my|dreams come|true? My|dreams, sweet-|
w: |||||||||
 _e4 f2 |{/f} d6- | d4 |] %33
w: heart, of|||
w: |||
V:2
 d2 | A4 B2 | D4 A2 | G4 G2 | G4 e2 | A4 c2 | G4 B2 | F6- | F4 d2 | A4 B2 | F4 G2 | A4 f2 | %12
 =e4 d2 | c4 G2 | d4 d2 | c6- | c4 d2 | A4 B2 | D4 A2 | G4 G2 | G4 e2 | G4 A2 | B4 c2 | d6- | %24
 d4 d2 | d4 G2 | A4 =B2 | c4 d2 | !fermata!e4 d2 | G4 d2 | A4 d2 |{/d} B6- | B4 |] %33
V:3
 F,2 | F,4 F,2 | F,4 F,2 | A,4 A,2 | A,4 A,2 | F,4 A,2 | B,4 B,2 | B,4 (!>!^G,2 | A,4) F,2 | %9
w: |||||||* Hm|_ _|
w: |||||||* Hm|_ _|
 F,4 F,2 | B,4 B,2 | C4 A,2 | ^G,4 G,2 | =G,4 B,2 | B,4 B,2 | (B,2 A,2 B,2 | A,4) F,2 | F,4 F,2 | %18
w: |||||||||
w: |||||||||
 F,4 F,2 | A,4 A,2 | A,4 A,2 | B,4 ^F,2 | G,4 A,2 | A,6- | A,4 A,2 | G,4 =B,2 | C4 G,2 | G,4 =B,2 | %28
w: ||||||||||
w: ||||||||||
 !fermata!C4 _B,2 |"^rall." B,4 B,2 | C4 A,2 | F,6- | F,4 |] %33
w: |||||
w: |||||
V:4
 B,,2 | B,,4 B,,2 | B,,4 B,,2 | C,4 C,2 | F,,4 C,2 | C,4 C,2 | C,4 ^C,2 | D,4 (!>!=B,,2 | %8
w: ||||||||
w: ||||||||
 C,4) _B,,2 | B,,4 B,,2 | D,4 _D,2 | C,4 C,2 | =B,,4 B,,2 | C,4 C,2 | G,4 C,2 | (F,4 _G,2 | %16
w: ||||||||
w: ||||||||
 F,4) B,,2 | B,,4 B,,2 | B,,4 B,,2 | C,4 C,2 | F,,4 C,2 | C,4 C,2 | C,4 E,2 | D,4 D,D, | C,4 C,2 | %25
w: |||||||||
w: |||||||* Love me|too, *|
 =B,,4 G,2 | ^F,4 =F,2 | E,4 G,2 | !fermata!C,4 C,2 | C,4 C,2 | F,4 F,2 | B,,6- | B,,4 |] %33
w: ||||||||
w: ||||||||

